X:1
T:Our Best
T:Grant Colfax Tullar
T:Our Best
T:Public Domain
T:Public Domain
C:Grant Colfax Tullar
Z:Public Domain
%%score ( 1 2 ) ( 3 4 )
L:1/8
M:4/4
K:Bb
V:1 treble 
V:2 treble 
V:3 bass 
V:4 bass 
V:1
 [DF]4 [^C=E]2 [=C_E]2 | [B,D]2 [DF]2 [DB]4 | [EB]4 [FA]2 [EG]2 | [DF]8 | [EF]4 [EA]2 [EG]2 | %5
w: 1.~Hear ye the|Mas- ter’s call,|“Give Me thy|best!”|For, be it|
w: 2.~Wait not for|men to laud,|heed not their|slight;|Win- ning the|
w: 3.~Night soon comes|on a- pace,|day hast- ens|by;|Work- man and|
 [DG]2 [DF]2 [DB]4 | (C2 F2) [=EB]2 [EG]2 | [Ec]8 | [DF]4 [^C=E]2 [=C_E]2 | [B,D]2 [DF]2 [DB]4 | %10
w: great or small,|that * is His|Do|then the best|you can, not|
w: smile of God|brings * its de-|Aid-|ing the good|and true ne’er|
w: work must face|test- * ing on|Oh,|may we in|that day find|
 [Fd]4 [Fc]2 [FB]2 | [EG]8 | [EB]4 [FA]2 [EG]2 | [DF]2 [^C=E]2 [DF]2 [FB]2 | [=EB]4 [_Ec]4 | %15
w: for re- ward,|Not|for the praise|of men, but for|the Lord.|
w: goes un- blest,|All|that we think|or do, be it|the best.|
w: rest, sweet rest,|Which|God has prom-|ised those who do|their best.|
 [DB]8 ||"^Refrain" [Ec]4 [D=B]4 | [Ed]2 [Ec]2 [EA]2 [CF]2 | [B,B]4 (B,2 C2) | [DF]8 | %20
w: |||||
w: |||||
w: |||||
 [Ec]4 [D=B]4 | [Ed]2 [Ec]2 [EA]2 [EF]2 | [DB]4 [Gc]4 | [^Fd]8 | [DF]4 [^C=E]2 [=C_E]2 | %25
w: |||||
w: |||||
w: |||||
 [B,D]2 [DF]2 [DB]4 | [Fd]4 [Fc]2 [FB]2 | [EG]8 | [EB]4 [FA]2 [EG]2 | [DF]2 [^C=E]2 [DF]2 [FB]2 | %30
w: |||||
w: |||||
w: |||||
 [=EB]4 [_Ec]4 | [DB]8 |] %32
w: ||
w: ||
w: ||
V:2
 x8 | x8 | x8 | x8 | x8 | x8 | A4 x4 | x8 | x8 | x8 | x8 | x8 | x8 | x8 | x8 | x8 || x8 | x8 | %18
w: ||||||test.||||||||||||
w: ||||||light!||||||||||||
w: ||||||high.||||||||||||
 x4 G4 | x8 | x8 | x8 | x8 | x8 | x8 | x8 | x8 | x8 | x8 | x8 | x8 | x8 |] %32
w: ||||||||||||||
w: ||||||||||||||
w: ||||||||||||||
V:3
 (B,2 F,2) [B,,G,]2 [B,,A,]2 | [B,,B,]2 [B,,B,]2 [B,,F,]4 | [E,G,]4 z F,(G,A,) | [B,,B,]8 | %4
w: ~ * ~ ~|~ ~ ~|~ ~ ~ *|~|
 [F,A,]4 [F,C]2 [F,A,]2 | [B,,B,]2 [B,,B,]2 [B,,F,]4 | (F,2 A,2) [C,G,]2 [C,C]2 | (A,4 F,4) | %8
w: ~ ~ ~|~ ~ ~|~ * ~ ~|~ *|
 [B,,F,]4 [B,,G,]2 [B,,A,]2 | [B,,B,]2 [B,,B,]2 [B,,F,]4 | [B,,B,]4 [C,A,]2 [D,B,]2 | [E,B,]8 | %12
w: ~ ~ ~|~ ~ ~|~ ~ ~|~|
 [E,G,]4 z F,(G,A,) | [B,,B,]2 [B,,G,]2 [B,,F,]2 [D,F,]2 | [C,G,]4 [F,,A,]4 | [B,,B,]8 || %16
w: ~ ~ ~ *|~ ~ ~ Ev-|ery work|for|
 [F,A,]4 [F,^G,]4 | [F,A,]2 [F,A,]2 [F,C]2 [E,A,]2 | [D,F,]4 (G,2 A,2) | [B,,B,]8 | %20
w: Je- sus|will be blest, But|He asks *|ev-|
 [F,A,]4 [F,^G,]4 | [F,A,]2 [F,A,]2 [F,C]2 [F,A,]2 | [G,B,]4 (B,2 G,2) | [D,A,]8 | %24
w: ery- one|his best. Our tal-|ents may *|few,|
 (B,2 F,2) [B,,G,]2 [B,,A,]2 | [B,,B,]2 [B,,B,]2 [B,,F,]4 | [B,,B,]4 [C,A,]2 [D,B,]2 | [E,B,]8 | %28
w: these * may be|But un- to|Him is due|our|
 [E,G,]4 (E,F,)(G,A,) | [B,,B,]2 [B,,G,]2 [B,,F,]2 [D,F,]2 | [C,G,]4 [F,,F,A,]4 | [B,,F,B,]8 |] %32
w: best, our * all. *||||
V:4
 B,,4 x4 | x8 | x4 E,2 E,2 | x8 | x8 | x8 | C,4 x4 | F,,8 | x8 | x8 | x8 | x8 | x4 (E,2 E,2) | x8 | %14
w: ~||~ ~||||~|~|||||~ *||
 x8 | x8 || x8 | x8 | x4 E,4 | x8 | x8 | x8 | x4 E,4 | x8 | B,,4 x4 | x8 | x8 | x8 | x4 E,2 E,2 | %29
w: ||||from||||be||small,|||||
 x8 | x8 | x8 |] %32
w: |||

